X:8
T:Leken hinnes Kokk-Sofia (pols)
R:rorospols
Z:Småviltlaget, på Skuddhold, Track 8
Z:(also Rorostraktom #157)
M:3/4
L:1/8
K:A
|: "A"((3EFG A2) (B>A | "Bm"B<c) d2 uc>ue |
   "D"f>(d c<d) B>d | "A"((3cAc) ((3BGB) (A2 |
   "A"(3EFG A2) (B>A | "Bm"B<c) d2 uc>ue |
   "D"f>(d c<d) B>a | "E"((3gfg) "A"a4  :|
|: "A"~e>(d c<e) a>g | "D"f>(e d<c) d>c |
   "E"B>(A G<A) B>c | "E/B"((3dBd) ((3cAc) B>e |
   "A"e>(d "A/B"c<e) "A/C#"a>g | "D"f>(e d<c) d>c |
   "E"(B>A) (G<B) ((3efg) | "E"ua2 "A"{g}ua4 :|
